icon/ir/pen-tablet-connect-usb.svg

<svg stroke-width="1.5" viewBox="0 0 24 24" fill="none" xmlns="http://www.w3.org/2000/svg" height="1em" width="1em">
  <path d="M22 7V5C22 3.89543 21.1046 3 20 3H4C2.89543 3 2 3.89543 2 5V19C2 20.1046 2.89543 21 4 21H20C21.1046 21 22 20.1046 22 19V17" stroke="currentColor" stroke-linecap="round" stroke-linejoin="round"/>
  <path d="M2 12H6" stroke="currentColor" stroke-width="1.5"/>
  <path d="M6 3V21" stroke="currentColor" stroke-width="1.5"/>
  <path d="M19.25 12H11" stroke="currentColor" stroke-linecap="round" stroke-linejoin="round"/>
  <path d="M18.7 12L17.875 15H16.225" stroke="currentColor" stroke-linecap="round" stroke-linejoin="round"/>
  <path d="M17.6 12L16.5 9H14.575" stroke="currentColor" stroke-linecap="round" stroke-linejoin="round"/>
  <path d="M22 12C22 11.2469 21.3844 10.6364 20.625 10.6364C19.8656 10.6364 19.25 11.2469 19.25 12C19.25 12.7531 19.8656 13.3636 20.625 13.3636C21.3844 13.3636 22 12.7531 22 12Z" stroke="currentColor" stroke-linecap="round" stroke-linejoin="round"/>
</svg>

<svg width="24" height="24" stroke-width="1.5" fill="none" xmlns="http://www.w3.org/2000/svg"><path d="M22 7V5a2 2 0 0 0-2-2H4a2 2 0 0 0-2 2v14a2 2 0 0 0 2 2h16a2 2 0 0 0 2-2v-2" stroke="currentColor" stroke-linecap="round" stroke-linejoin="round"/><path d="M2 12h4M6 3v18" stroke="currentColor"/><path d="M19.25 12H11M18.7 12l-.825 3h-1.65M17.6 12l-1.1-3h-1.925M22 12a1.37 1.37 0 0 0-1.375-1.364c-.76 0-1.375.61-1.375 1.364a1.37 1.37 0 0 0 1.375 1.364c.76 0 1.375-.61 1.375-1.364Z" stroke="currentColor" stroke-linecap="round" stroke-linejoin="round"/></svg>
